X: 55
T:Debka Dayagim
C:Gil Aldema 1955
O:Israel
I:choreographer S.Hermon, 1969
D: Debka Israeli Folk Dances (Tikva Records T-100)
L:1/8
M:2/4
Q:1/4=120
K:D
 "Em"B2 B2   | E4           | "D"A>B A>G | FE "Em"ED   |\
 B2 B2       | E2 "D"FG     |FE "Em"ED   | "D"A2 A2    |
 A/G/A2 G    | FGAG         | FF "Em"ED  | "D"F2 F2    |\
 A/G/A2 G    | FGAG         | FF "Em"ED  |E2 E2        |
 G>F GA      | "Bm"Bd "A"^cB| "D"A A2 B  |\
 "Em"GA "D"F2| "Em"E2 E2    |"D"A2 "Em"GB| "D"A4       |
 "Em"B2 B2   | E4           | "D"A>B A>G | FE "Em"ED   |\
 B2 B2       | E2 "D"FG     | A2 "Em"GB  | "D"A2 "Em"Bc|
 "Bm"~d3 B   | "D"A2 F2     | "Em"~B3B   | "D"~A3A     |\
 "Em"~G3G    | "D"F2 "Em"ED | "D"A2"Em"GB|"D"A3G       |\
 F2 "Em"E2   | "D"D4        |



